X:562
T: WIE KOMMTS DASS DU SO TRAURIG BIST
N: E0531A
O: Europa, Mitteleuropa, Deutschland, Thueringen
R: Liebes - Lied
M: 4/4
L: 1/8
K: E
EG | B3GA2F2 | GFGAG2
EG | B3GA2F2 | G4z2
EG | B3GA2F2 | GFGAG2
EG | B3GA2F2 | G4z2
Be | d3AA2c2 | BAGAB2
c2 | B3GE2F2 | G4
c4 | B3EG2F2 | E4z2
Be | d3AA2c2 | BAGAB2
c2 | B3GE2F2 | G4
c4 | B3EG2F2 | E4z2

